;FLAVOR:UltiGCode
;TIME:2302
;MATERIAL:4478
;MATERIAL2:0
;NOZZLE_DIAMETER:0.600000
;NOZZLE_DIAMETER2:0.600000

;Layer count: 98
;LAYER:0
M107
G0 F7200 X85.950 Y82.450 Z0.260
;TYPE:SKIRT
G1 F1200 X137.050 Y82.450 E7.97160
G1 X137.050 Y140.550 E17.03520
G1 X85.950 Y140.550 E25.00680
G1 X85.950 Y82.450 E34.07040
G10
G0 F7200 X90.150 Y86.650
;TYPE:WALL-INNER
G11
G1 F1200 X132.850 Y86.650 E40.73160
G1 X132.850 Y136.350 E48.48480
G1 X90.150 Y136.350 E55.14600
G1 X90.150 Y86.650 E62.89920
G0 F7200 X90.350 Y86.850
G1 F1200 X90.350 Y136.150 E70.59000
G1 X132.650 Y136.150 E77.18880
G1 X132.650 Y86.850 E84.87960
G1 X90.350 Y86.850 E91.47840
G0 F7200 X90.950 Y87.450
;TYPE:WALL-OUTER
G1 F1200 X90.950 Y135.550 E98.98200
G1 X132.050 Y135.550 E105.39360
G1 X132.050 Y87.450 E112.89720
G1 X90.950 Y87.450 E119.30880
G0 F7200 X90.950 Y87.050
G0 X89.950 Y86.360
G0 X89.550 Y86.050
G1 F1200 X133.450 Y86.050 E126.15720
G1 X133.450 Y136.950 E134.09760
G1 X89.550 Y136.950 E140.94600
G1 X89.550 Y86.050 E148.88640
;LAYER:1
M106 S84
G0 F7200 X90.150 Y86.650 Z0.360
;TYPE:WALL-INNER
G1 F1500 X132.850 Y86.650 E151.44840
G1 X132.850 Y136.350 E154.43040
G1 X90.150 Y136.350 E156.99240
G1 X90.150 Y86.650 E159.97440
G0 F7200 X90.350 Y86.850
G1 F1500 X90.350 Y136.150 E162.93240
G1 X132.650 Y136.150 E165.47040
G1 X132.650 Y86.850 E168.42840
G1 X90.350 Y86.850 E170.96640
G0 F7200 X90.950 Y87.450
;TYPE:WALL-OUTER
G1 F1320 X90.950 Y135.550 E173.85240
G1 X132.050 Y135.550 E176.31840
G1 X132.050 Y87.450 E179.20440
G1 X90.950 Y87.450 E181.67040
G0 F7200 X90.950 Y87.050
G0 X89.950 Y86.360
G0 X89.550 Y86.050
G1 F1320 X133.450 Y86.050 E184.30440
G1 X133.450 Y136.950 E187.35840
G1 X89.550 Y136.950 E189.99240
G1 X89.550 Y86.050 E193.04640
;LAYER:2
M106 S168
G0 F7200 X90.150 Y86.650 Z0.460
;TYPE:WALL-INNER
G1 F1800 X132.850 Y86.650 E195.60840
G1 X132.850 Y136.350 E198.59040
G1 X90.150 Y136.350 E201.15240
G1 X90.150 Y86.650 E204.13440
G0 F7200 X90.350 Y86.850
G1 F1800 X90.350 Y136.150 E207.09240
G1 X132.650 Y136.150 E209.63040
G1 X132.650 Y86.850 E212.58840
G1 X90.350 Y86.850 E215.12640
G0 F7200 X90.950 Y87.450
;TYPE:WALL-OUTER
G1 F1500 X90.950 Y135.550 E218.01240
G1 X132.050 Y135.550 E220.47840
G1 X132.050 Y87.450 E223.36440
G1 X90.950 Y87.450 E225.83040
G0 F7200 X90.950 Y87.050
G0 X89.950 Y86.360
G0 X89.550 Y86.050
G1 F1500 X133.450 Y86.050 E228.46440
G1 X133.450 Y136.950 E231.51840
G1 X89.550 Y136.950 E234.15240
G1 X89.550 Y86.050 E237.20640
;LAYER:3
M106 S255
G0 F7200 X90.150 Y86.650 Z0.560
;TYPE:WALL-INNER
G1 F2100 X132.850 Y86.650 E239.76840
G1 X132.850 Y136.350 E242.75040
G1 X90.150 Y136.350 E245.31240
G1 X90.150 Y86.650 E248.29440
G0 F7200 X90.350 Y86.850
G1 F2100 X90.350 Y136.150 E251.25240
G1 X132.650 Y136.150 E253.79040
G1 X132.650 Y86.850 E256.74840
G1 X90.350 Y86.850 E259.28640
G0 F7200 X90.950 Y87.450
;TYPE:WALL-OUTER
G1 F1620 X90.950 Y135.550 E262.17240
G1 X132.050 Y135.550 E264.63840
G1 X132.050 Y87.450 E267.52440
G1 X90.950 Y87.450 E269.99040
G0 F7200 X90.950 Y87.050
G0 X89.950 Y86.360
G0 X89.550 Y86.050
G1 F1620 X133.450 Y86.050 E272.62440
G1 X133.450 Y136.950 E275.67840
G1 X89.550 Y136.950 E278.31240
G1 X89.550 Y86.050 E281.36640
;LAYER:4
G0 F7200 X90.150 Y86.650 Z0.660
;TYPE:WALL-INNER
G1 F2400 X132.850 Y86.650 E283.92840
G1 X132.850 Y136.350 E286.91040
G1 X90.150 Y136.350 E289.47240
G1 X90.150 Y86.650 E292.45440
G0 F7200 X90.350 Y86.850
G1 F2400 X90.350 Y136.150 E295.41240
G1 X132.650 Y136.150 E297.95040
G1 X132.650 Y86.850 E300.90840
G1 X90.350 Y86.850 E303.44640
G0 F7200 X90.950 Y87.450
;TYPE:WALL-OUTER
G1 F1800 X90.950 Y135.550 E306.33240
G1 X132.050 Y135.550 E308.79840
G1 X132.050 Y87.450 E311.68440
G1 X90.950 Y87.450 E314.15040
G0 F7200 X90.950 Y87.050
G0 X89.950 Y86.360
G0 X89.550 Y86.050
G1 F1800 X133.450 Y86.050 E316.78440
G1 X133.450 Y136.950 E319.83840
G1 X89.550 Y136.950 E322.47240
G1 X89.550 Y86.050 E325.52640
;LAYER:5
G0 F7200 X90.150 Y86.650 Z0.760
;TYPE:WALL-INNER
G1 F2400 X132.850 Y86.650 E328.08840
G1 X132.850 Y136.350 E331.07040
G1 X90.150 Y136.350 E333.63240
G1 X90.150 Y86.650 E336.61440
G0 F7200 X90.350 Y86.850
G1 F2400 X90.350 Y136.150 E339.57240
G1 X132.650 Y136.150 E342.11040
G1 X132.650 Y86.850 E345.06840
G1 X90.350 Y86.850 E347.60640
G0 F7200 X90.950 Y87.450
;TYPE:WALL-OUTER
G1 F1800 X90.950 Y135.550 E350.49240
G1 X132.050 Y135.550 E352.95840
G1 X132.050 Y87.450 E355.84440
G1 X90.950 Y87.450 E358.31040
G0 F7200 X90.950 Y87.050
G0 X89.950 Y86.360
G0 X89.550 Y86.050
G1 F1800 X133.450 Y86.050 E360.94440
G1 X133.450 Y136.950 E363.99840
G1 X89.550 Y136.950 E366.63240
G1 X89.550 Y86.050 E369.68640
;LAYER:6
G0 F7200 X90.150 Y86.650 Z0.860
;TYPE:WALL-INNER
G1 F2400 X132.850 Y86.650 E372.24840
G1 X132.850 Y136.350 E375.23040
G1 X90.150 Y136.350 E377.79240
G1 X90.150 Y86.650 E380.77440
G0 F7200 X90.350 Y86.850
G1 F2400 X90.350 Y136.150 E383.73240
G1 X132.650 Y136.150 E386.27040
G1 X132.650 Y86.850 E389.22840
G1 X90.350 Y86.850 E391.76640
G0 F7200 X90.950 Y87.450
;TYPE:WALL-OUTER
G1 F1800 X90.950 Y135.550 E394.65240
G1 X132.050 Y135.550 E397.11840
G1 X132.050 Y87.450 E400.00440
G1 X90.950 Y87.450 E402.47040
G0 F7200 X90.950 Y87.050
G0 X89.950 Y86.360
G0 X89.550 Y86.050
G1 F1800 X133.450 Y86.050 E405.10440
G1 X133.450 Y136.950 E408.15840
G1 X89.550 Y136.950 E410.79240
G1 X89.550 Y86.050 E413.84640
;LAYER:7
G0 F7200 X90.150 Y86.650 Z0.960
;TYPE:WALL-INNER
G1 F2400 X132.850 Y86.650 E416.40840
G1 X132.850 Y136.350 E419.39040
G1 X90.150 Y136.350 E421.95240
G1 X90.150 Y86.650 E424.93440
G0 F7200 X90.350 Y86.850
G1 F2400 X90.350 Y136.150 E427.89240
G1 X132.650 Y136.150 E430.43040
G1 X132.650 Y86.850 E433.38840
G1 X90.350 Y86.850 E435.92640
G0 F7200 X90.950 Y87.450
;TYPE:WALL-OUTER
G1 F1800 X90.950 Y135.550 E438.81240
G1 X132.050 Y135.550 E441.27840
G1 X132.050 Y87.450 E444.16440
G1 X90.950 Y87.450 E446.63040
G0 F7200 X90.950 Y87.050
G0 X89.950 Y86.360
G0 X89.550 Y86.050
G1 F1800 X133.450 Y86.050 E449.26440
G1 X133.450 Y136.950 E452.31840
G1 X89.550 Y136.950 E454.95240
G1 X89.550 Y86.050 E458.00640
;LAYER:8
G0 F7200 X90.150 Y86.650 Z1.060
;TYPE:WALL-INNER
G1 F2400 X132.850 Y86.650 E460.56840
G1 X132.850 Y136.350 E463.55040
G1 X90.150 Y136.350 E466.11240
G1 X90.150 Y86.650 E469.09440
G0 F7200 X90.350 Y86.850
G1 F2400 X90.350 Y136.150 E472.05240
G1 X132.650 Y136.150 E474.59040
G1 X132.650 Y86.850 E477.54840
G1 X90.350 Y86.850 E480.08640
G0 F7200 X90.950 Y87.450
;TYPE:WALL-OUTER
G1 F1800 X90.950 Y135.550 E482.97240
G1 X132.050 Y135.550 E485.43840
G1 X132.050 Y87.450 E488.32440
G1 X90.950 Y87.450 E490.79040
G0 F7200 X90.950 Y87.050
G0 X89.950 Y86.360
G0 X89.550 Y86.050
G1 F1800 X133.450 Y86.050 E493.42440
G1 X133.450 Y136.950 E496.47840
G1 X89.550 Y136.950 E499.11240
G1 X89.550 Y86.050 E502.16640
;LAYER:9
G0 F7200 X90.150 Y86.650 Z1.160
;TYPE:WALL-INNER
G1 F2400 X132.850 Y86.650 E504.72840
G1 X132.850 Y136.350 E507.71040
G1 X90.150 Y136.350 E510.27240
G1 X90.150 Y86.650 E513.25440
G0 F7200 X90.350 Y86.850
G1 F2400 X90.350 Y136.150 E516.21240
G1 X132.650 Y136.150 E518.75040
G1 X132.650 Y86.850 E521.70840
G1 X90.350 Y86.850 E524.24640
G0 F7200 X90.950 Y87.450
;TYPE:WALL-OUTER
G1 F1800 X90.950 Y135.550 E527.13240
G1 X132.050 Y135.550 E529.59840
G1 X132.050 Y87.450 E532.48440
G1 X90.950 Y87.450 E534.95040
G0 F7200 X90.950 Y87.050
G0 X89.950 Y86.360
G0 X89.550 Y86.050
G1 F1800 X133.450 Y86.050 E537.58440
G1 X133.450 Y136.950 E540.63840
G1 X89.550 Y136.950 E543.27240
G1 X89.550 Y86.050 E546.32640
;LAYER:10
G0 F7200 X90.150 Y86.650 Z1.260
;TYPE:WALL-INNER
G1 F2400 X132.850 Y86.650 E548.88840
G1 X132.850 Y136.350 E551.87040
G1 X90.150 Y136.350 E554.43240
G1 X90.150 Y86.650 E557.41440
G0 F7200 X90.350 Y86.850
G1 F2400 X90.350 Y136.150 E560.37240
G1 X132.650 Y136.150 E562.91040
G1 X132.650 Y86.850 E565.86840
G1 X90.350 Y86.850 E568.40640
G0 F7200 X90.950 Y87.450
;TYPE:WALL-OUTER
G1 F1800 X90.950 Y135.550 E571.29240
G1 X132.050 Y135.550 E573.75840
G1 X132.050 Y87.450 E576.64440
G1 X90.950 Y87.450 E579.11040
G0 F7200 X90.950 Y87.050
G0 X89.950 Y86.360
G0 X89.550 Y86.050
G1 F1800 X133.450 Y86.050 E581.74440
G1 X133.450 Y136.950 E584.79840
G1 X89.550 Y136.950 E587.43240
G1 X89.550 Y86.050 E590.48640
;LAYER:11
G0 F7200 X90.150 Y86.650 Z1.360
;TYPE:WALL-INNER
G1 F2400 X132.850 Y86.650 E593.04840
G1 X132.850 Y136.350 E596.03040
G1 X90.150 Y136.350 E598.59240
G1 X90.150 Y86.650 E601.57440
G0 F7200 X90.350 Y86.850
G1 F2400 X90.350 Y136.150 E604.53240
G1 X132.650 Y136.150 E607.07040
G1 X132.650 Y86.850 E610.02840
G1 X90.350 Y86.850 E612.56640
G0 F7200 X90.950 Y87.450
;TYPE:WALL-OUTER
G1 F1800 X90.950 Y135.550 E615.45240
G1 X132.050 Y135.550 E617.91840
G1 X132.050 Y87.450 E620.80440
G1 X90.950 Y87.450 E623.27040
G0 F7200 X90.950 Y87.050
G0 X89.950 Y86.360
G0 X89.550 Y86.050
G1 F1800 X133.450 Y86.050 E625.90440
G1 X133.450 Y136.950 E628.95840
G1 X89.550 Y136.950 E631.59240
G1 X89.550 Y86.050 E634.64640
;LAYER:12
G0 F7200 X90.150 Y86.650 Z1.460
;TYPE:WALL-INNER
G1 F2400 X132.850 Y86.650 E637.20840
G1 X132.850 Y136.350 E640.19040
G1 X90.150 Y136.350 E642.75240
G1 X90.150 Y86.650 E645.73440
G0 F7200 X90.350 Y86.850
G1 F2400 X90.350 Y136.150 E648.69240
G1 X132.650 Y136.150 E651.23040
G1 X132.650 Y86.850 E654.18840
G1 X90.350 Y86.850 E656.72640
G0 F7200 X90.950 Y87.450
;TYPE:WALL-OUTER
G1 F1800 X90.950 Y135.550 E659.61240
G1 X132.050 Y135.550 E662.07840
G1 X132.050 Y87.450 E664.96440
G1 X90.950 Y87.450 E667.43040
G0 F7200 X90.950 Y87.050
G0 X89.950 Y86.360
G0 X89.550 Y86.050
G1 F1800 X133.450 Y86.050 E670.06440
G1 X133.450 Y136.950 E673.11840
G1 X89.550 Y136.950 E675.75240
G1 X89.550 Y86.050 E678.80640
;LAYER:13
G0 F7200 X90.150 Y86.650 Z1.560
;TYPE:WALL-INNER
G1 F2400 X132.850 Y86.650 E681.36840
G1 X132.850 Y136.350 E684.35040
G1 X90.150 Y136.350 E686.91240
G1 X90.150 Y86.650 E689.89440
G0 F7200 X90.350 Y86.850
G1 F2400 X90.350 Y136.150 E692.85240
G1 X132.650 Y136.150 E695.39040
G1 X132.650 Y86.850 E698.34840
G1 X90.350 Y86.850 E700.88640
G0 F7200 X90.950 Y87.450
;TYPE:WALL-OUTER
G1 F1800 X90.950 Y135.550 E703.77240
G1 X132.050 Y135.550 E706.23840
G1 X132.050 Y87.450 E709.12440
G1 X90.950 Y87.450 E711.59040
G0 F7200 X90.950 Y87.050
G0 X89.950 Y86.360
G0 X89.550 Y86.050
G1 F1800 X133.450 Y86.050 E714.22440
G1 X133.450 Y136.950 E717.27840
G1 X89.550 Y136.950 E719.91240
G1 X89.550 Y86.050 E722.96640
;LAYER:14
G0 F7200 X90.150 Y86.650 Z1.660
;TYPE:WALL-INNER
G1 F2400 X132.850 Y86.650 E725.52840
G1 X132.850 Y136.350 E728.51040
G1 X90.150 Y136.350 E731.07240
G1 X90.150 Y86.650 E734.05440
G0 F7200 X90.350 Y86.850
G1 F2400 X90.350 Y136.150 E737.01240
G1 X132.650 Y136.150 E739.55040
G1 X132.650 Y86.850 E742.50840
G1 X90.350 Y86.850 E745.04640
G0 F7200 X90.950 Y87.450
;TYPE:WALL-OUTER
G1 F1800 X90.950 Y135.550 E747.93240
G1 X132.050 Y135.550 E750.39840
G1 X132.050 Y87.450 E753.28440
G1 X90.950 Y87.450 E755.75040
G0 F7200 X90.950 Y87.050
G0 X89.950 Y86.360
G0 X89.550 Y86.050
G1 F1800 X133.450 Y86.050 E758.38440
G1 X133.450 Y136.950 E761.43840
G1 X89.550 Y136.950 E764.07240
G1 X89.550 Y86.050 E767.12640
;LAYER:15
G0 F7200 X90.150 Y86.650 Z1.760
;TYPE:WALL-INNER
G1 F2400 X132.850 Y86.650 E769.68840
G1 X132.850 Y136.350 E772.67040
G1 X90.150 Y136.350 E775.23240
G1 X90.150 Y86.650 E778.21440
G0 F7200 X90.350 Y86.850
G1 F2400 X90.350 Y136.150 E781.17240
G1 X132.650 Y136.150 E783.71040
G1 X132.650 Y86.850 E786.66840
G1 X90.350 Y86.850 E789.20640
G0 F7200 X90.950 Y87.450
;TYPE:WALL-OUTER
G1 F1800 X90.950 Y135.550 E792.09240
G1 X132.050 Y135.550 E794.55840
G1 X132.050 Y87.450 E797.44440
G1 X90.950 Y87.450 E799.91040
G0 F7200 X90.950 Y87.050
G0 X89.950 Y86.360
G0 X89.550 Y86.050
G1 F1800 X133.450 Y86.050 E802.54440
G1 X133.450 Y136.950 E805.59840
G1 X89.550 Y136.950 E808.23240
G1 X89.550 Y86.050 E811.28640
;LAYER:16
G0 F7200 X90.150 Y86.650 Z1.860
;TYPE:WALL-INNER
G1 F2400 X132.850 Y86.650 E813.84840
G1 X132.850 Y136.350 E816.83040
G1 X90.150 Y136.350 E819.39240
G1 X90.150 Y86.650 E822.37440
G0 F7200 X90.350 Y86.850
G1 F2400 X90.350 Y136.150 E825.33240
G1 X132.650 Y136.150 E827.87040
G1 X132.650 Y86.850 E830.82840
G1 X90.350 Y86.850 E833.36640
G0 F7200 X90.950 Y87.450
;TYPE:WALL-OUTER
G1 F1800 X90.950 Y135.550 E836.25240
G1 X132.050 Y135.550 E838.71840
G1 X132.050 Y87.450 E841.60440
G1 X90.950 Y87.450 E844.07040
G0 F7200 X90.950 Y87.050
G0 X89.950 Y86.360
G0 X89.550 Y86.050
G1 F1800 X133.450 Y86.050 E846.70440
G1 X133.450 Y136.950 E849.75840
G1 X89.550 Y136.950 E852.39240
G1 X89.550 Y86.050 E855.44640
;LAYER:17
G0 F7200 X90.150 Y86.650 Z1.960
;TYPE:WALL-INNER
G1 F2400 X132.850 Y86.650 E858.00840
G1 X132.850 Y136.350 E860.99040
G1 X90.150 Y136.350 E863.55240
G1 X90.150 Y86.650 E866.53440
G0 F7200 X90.350 Y86.850
G1 F2400 X90.350 Y136.150 E869.49240
G1 X132.650 Y136.150 E872.03040
G1 X132.650 Y86.850 E874.98840
G1 X90.350 Y86.850 E877.52640
G0 F7200 X90.950 Y87.450
;TYPE:WALL-OUTER
G1 F1800 X90.950 Y135.550 E880.41240
G1 X132.050 Y135.550 E882.87840
G1 X132.050 Y87.450 E885.76440
G1 X90.950 Y87.450 E888.23040
G0 F7200 X90.950 Y87.050
G0 X89.950 Y86.360
G0 X89.550 Y86.050
G1 F1800 X133.450 Y86.050 E890.86440
G1 X133.450 Y136.950 E893.91840
G1 X89.550 Y136.950 E896.55240
G1 X89.550 Y86.050 E899.60640
;LAYER:18
G0 F7200 X90.150 Y86.650 Z2.060
;TYPE:WALL-INNER
G1 F2400 X132.850 Y86.650 E902.16840
G1 X132.850 Y136.350 E905.15040
G1 X90.150 Y136.350 E907.71240
G1 X90.150 Y86.650 E910.69440
G0 F7200 X90.350 Y86.850
G1 F2400 X90.350 Y136.150 E913.65240
G1 X132.650 Y136.150 E916.19040
G1 X132.650 Y86.850 E919.14840
G1 X90.350 Y86.850 E921.68640
G0 F7200 X90.950 Y87.450
;TYPE:WALL-OUTER
G1 F1800 X90.950 Y135.550 E924.57240
G1 X132.050 Y135.550 E927.03840
G1 X132.050 Y87.450 E929.92440
G1 X90.950 Y87.450 E932.39040
G0 F7200 X90.950 Y87.050
G0 X89.950 Y86.360
G0 X89.550 Y86.050
G1 F1800 X133.450 Y86.050 E935.02440
G1 X133.450 Y136.950 E938.07840
G1 X89.550 Y136.950 E940.71240
G1 X89.550 Y86.050 E943.76640
;LAYER:19
G0 F7200 X90.150 Y86.650 Z2.160
;TYPE:WALL-INNER
G1 F2400 X132.850 Y86.650 E946.32840
G1 X132.850 Y136.350 E949.31040
G1 X90.150 Y136.350 E951.87240
G1 X90.150 Y86.650 E954.85440
G0 F7200 X90.350 Y86.850
G1 F2400 X90.350 Y136.150 E957.81240
G1 X132.650 Y136.150 E960.35040
G1 X132.650 Y86.850 E963.30840
G1 X90.350 Y86.850 E965.84640
G0 F7200 X90.950 Y87.450
;TYPE:WALL-OUTER
G1 F1800 X90.950 Y135.550 E968.73240
G1 X132.050 Y135.550 E971.19840
G1 X132.050 Y87.450 E974.08440
G1 X90.950 Y87.450 E976.55040
G0 F7200 X90.950 Y87.050
G0 X89.950 Y86.360
G0 X89.550 Y86.050
G1 F1800 X133.450 Y86.050 E979.18440
G1 X133.450 Y136.950 E982.23840
G1 X89.550 Y136.950 E984.87240
G1 X89.550 Y86.050 E987.92640
;LAYER:20
G0 F7200 X90.150 Y86.650 Z2.260
;TYPE:WALL-INNER
G1 F2400 X132.850 Y86.650 E990.48840
G1 X132.850 Y136.350 E993.47040
G1 X90.150 Y136.350 E996.03240
G1 X90.150 Y86.650 E999.01440
G0 F7200 X90.350 Y86.850
G1 F2400 X90.350 Y136.150 E1001.97240
G1 X132.650 Y136.150 E1004.51040
G1 X132.650 Y86.850 E1007.46840
G1 X90.350 Y86.850 E1010.00640
G0 F7200 X90.950 Y87.450
;TYPE:WALL-OUTER
G1 F1800 X90.950 Y135.550 E1012.89240
G1 X132.050 Y135.550 E1015.35840
G1 X132.050 Y87.450 E1018.24440
G1 X90.950 Y87.450 E1020.71040
G0 F7200 X90.950 Y87.050
G0 X89.950 Y86.360
G0 X89.550 Y86.050
G1 F1800 X133.450 Y86.050 E1023.34440
G1 X133.450 Y136.950 E1026.39840
G1 X89.550 Y136.950 E1029.03240
G1 X89.550 Y86.050 E1032.08640
;LAYER:21
G0 F7200 X90.150 Y86.650 Z2.360
;TYPE:WALL-INNER
G1 F2400 X132.850 Y86.650 E1034.64840
G1 X132.850 Y136.350 E1037.63040
G1 X90.150 Y136.350 E1040.19240
G1 X90.150 Y86.650 E1043.17440
G0 F7200 X90.350 Y86.850
G1 F2400 X90.350 Y136.150 E1046.13240
G1 X132.650 Y136.150 E1048.67040
G1 X132.650 Y86.850 E1051.62840
G1 X90.350 Y86.850 E1054.16640
G0 F7200 X90.950 Y87.450
;TYPE:WALL-OUTER
G1 F1800 X90.950 Y135.550 E1057.05240
G1 X132.050 Y135.550 E1059.51840
G1 X132.050 Y87.450 E1062.40440
G1 X90.950 Y87.450 E1064.87040
G0 F7200 X90.950 Y87.050
G0 X89.950 Y86.360
G0 X89.550 Y86.050
G1 F1800 X133.450 Y86.050 E1067.50440
G1 X133.450 Y136.950 E1070.55840
G1 X89.550 Y136.950 E1073.19240
G1 X89.550 Y86.050 E1076.24640
;LAYER:22
G0 F7200 X90.150 Y86.650 Z2.460
;TYPE:WALL-INNER
