;FLAVOR:UltiGCode
;TIME:1503
;MATERIAL:2631
;MATERIAL2:0
;NOZZLE_DIAMETER:0.400000
;NOZZLE_DIAMETER2:0.400000
;MTYPE:PLA

;Layer count: 46
;LAYER:0
M107
G0 F9000 X95.312 Y84.135 Z0.260
;TYPE:SKIRT
G1 F1800 X95.857 Y83.562 E0.07196
G1 X96.443 Y83.130 E0.13821
G1 X97.144 Y82.825 E0.20778
G1 X97.868 Y82.665 E0.27525
G1 X141.745 Y82.663 E4.26806
G1 X142.505 Y82.818 E4.33864
G1 X143.222 Y83.141 E4.41021
G1 X143.790 Y83.557 E4.47427
G1 X144.353 Y84.150 E4.54868
G1 X144.741 Y84.865 E4.62271
G1 X145.017 Y85.703 E4.70300
G1 X145.027 Y131.815 E8.89919
G1 X145.026 Y136.574 E9.33226
G1 X144.963 Y137.195 E9.38906
G1 X144.719 Y137.906 E9.45747
G1 X144.345 Y138.584 E9.52793
G1 X143.784 Y139.174 E9.60202
G1 X143.195 Y139.600 E9.66816
G1 X142.523 Y139.892 E9.73484
G1 X141.801 Y140.060 E9.80230
G1 X97.890 Y140.062 E13.79820
G1 X97.132 Y139.900 E13.86873
G1 X96.405 Y139.572 E13.94131
G1 X95.808 Y139.119 E14.00951
G1 X95.282 Y138.550 E14.08002
G1 X94.908 Y137.852 E14.15208
G1 X94.634 Y137.021 E14.23171
G1 X94.624 Y90.910 E18.42781
G1 X94.625 Y86.153 E18.86070
G1 X94.688 Y85.531 E18.91759
G1 X94.935 Y84.810 E18.98694
G1 X95.312 Y84.135 E19.05730
G10
G0 F9000 X98.325 Y86.365
;TYPE:WALL-INNER
G11
G1 F1800 X141.317 Y86.363 E22.96957
G1 X141.326 Y136.360 E27.51930
G1 X98.334 Y136.362 E31.43157
G1 X98.325 Y86.365 E35.98130
G0 F9000 X99.051 Y87.088
G1 F1800 X99.051 Y135.637 E40.39926
G1 X140.470 Y135.637 E44.16839
G1 X140.600 Y135.146 E44.21461
G1 X140.600 Y87.088 E48.58789
G1 X99.051 Y87.088 E52.36884
G0 F9000 X99.401 Y87.438
;TYPE:WALL-OUTER
G1 F1800 X99.401 Y135.287 E56.72310
G1 X140.201 Y135.287 E60.43590
G1 X140.250 Y135.101 E60.45341
G1 X140.250 Y87.438 E64.79074
G1 X99.401 Y87.438 E68.50800
G0 F9000 X99.401 Y87.163
G0 X98.251 Y86.328
G0 X97.975 Y86.321
G1 F1800 X97.982 Y86.254 E68.51413
G1 X98.030 Y86.138 E68.52555
G1 X98.127 Y86.050 E68.53747
G1 X98.235 Y86.015 E68.54780
G1 X141.410 Y86.013 E72.47673
G1 X141.465 Y86.024 E72.48183
G1 X141.566 Y86.080 E72.49234
G1 X141.620 Y86.137 E72.49949
G1 X141.653 Y86.198 E72.50580
G1 X141.667 Y86.241 E72.50991
G1 X141.676 Y136.404 E77.07475
G1 X141.669 Y136.470 E77.08078
G1 X141.642 Y136.549 E77.08838
G1 X141.622 Y136.586 E77.09221
G1 X141.568 Y136.643 E77.09935
G1 X141.526 Y136.673 E77.10405
G1 X141.467 Y136.699 E77.10992
G1 X141.417 Y136.710 E77.11458
G1 X98.244 Y136.712 E81.04332
G1 X98.185 Y136.699 E81.04882
G1 X98.125 Y136.672 E81.05481
G1 X98.032 Y136.589 E81.06615
G1 X97.998 Y136.526 E81.07266
G1 X97.984 Y136.483 E81.07678
G1 X97.975 Y86.321 E85.64152
G0 F9000 X98.632 Y86.505
;TYPE:SKIN
G1 F1800 X98.992 Y87.112 E85.69840
G1 X98.463 Y87.079 E85.75573
G1 X98.686 Y87.797 E85.81320
G1 X98.686 Y88.292 E85.87060
G1 X98.686 Y88.787 E85.92800
G1 X98.686 Y89.282 E85.98540
G1 X98.686 Y89.777 E86.04280
G1 X98.687 Y90.272 E86.10020
G1 X98.687 Y90.767 E86.15747
G1 X98.687 Y91.262 E86.21474
G1 X98.687 Y91.757 E86.27202
G1 X98.687 Y92.252 E86.32929
G1 X98.687 Y92.747 E86.38656
G1 X98.687 Y93.243 E86.44382
G1 X98.687 Y93.738 E86.50096
G1 X98.687 Y94.233 E86.55810
G1 X98.687 Y94.728 E86.61525
G1 X98.687 Y95.222 E86.67240
G1 X98.687 Y95.717 E86.72967
G1 X98.687 Y96.212 E86.78694
G1 X98.688 Y96.708 E86.84420
G1 X98.688 Y97.203 E86.90135
G1 X98.688 Y97.698 E86.95849
G1 X98.688 Y98.193 E87.01563
G1 X98.688 Y98.688 E87.07277
G1 X98.688 Y99.183 E87.12992
G1 X98.688 Y99.678 E87.18706
G1 X98.688 Y100.173 E87.24420
G1 X98.688 Y100.668 E87.30122
G1 X98.688 Y101.163 E87.35823
G1 X98.688 Y101.658 E87.41524
G1 X98.688 Y102.153 E87.47226
G1 X98.688 Y102.648 E87.52927
G1 X98.688 Y103.143 E87.58629
G1 X98.688 Y103.638 E87.64330
G1 X98.688 Y104.133 E87.70032
G1 X98.688 Y104.628 E87.75733
G1 X98.688 Y105.123 E87.81421
G1 X98.688 Y105.618 E87.87110
G1 X98.688 Y106.113 E87.92799
G1 X98.689 Y106.608 E87.98487
G1 X98.689 Y107.103 E88.04163
G1 X98.689 Y107.598 E88.09838
G1 X98.689 Y108.093 E88.15514
G1 X98.689 Y108.588 E88.21190
G1 X98.689 Y109.083 E88.26865
G1 X98.689 Y109.578 E88.32541
G1 X98.689 Y110.073 E88.38217
G1 X98.689 Y110.568 E88.43892
G1 X98.689 Y111.063 E88.49568
G1 X98.689 Y111.558 E88.55244
G1 X98.689 Y112.053 E88.60919
G1 X98.689 Y112.548 E88.66595
G1 X98.689 Y113.044 E88.72282
G1 X98.689 Y113.539 E88.77945
G1 X98.689 Y114.034 E88.83608
G1 X98.689 Y114.529 E88.89271
G1 X98.689 Y115.024 E88.94933
G1 X98.689 Y115.519 E89.00596
G1 X98.689 Y116.014 E89.06259
G1 X98.690 Y116.509 E89.11922
G1 X98.690 Y117.004 E89.17572
G1 X98.690 Y117.499 E89.23222
G1 X98.690 Y117.994 E89.28872
G1 X98.690 Y118.489 E89.34522
G1 X98.690 Y118.984 E89.40172
G1 X98.690 Y119.479 E89.45821
G1 X98.690 Y119.974 E89.51471
G1 X98.690 Y120.469 E89.57121
G1 X98.690 Y120.964 E89.62771
G1 X98.690 Y121.459 E89.68421
G1 X98.690 Y121.954 E89.74071
G1 X98.690 Y122.449 E89.79721
G1 X98.690 Y122.944 E89.85371
G1 X98.690 Y123.439 E89.91021
G1 X98.690 Y123.934 E89.96671
G1 X98.690 Y124.429 E90.02321
G1 X98.690 Y124.924 E90.07958
G1 X98.690 Y125.419 E90.13595
G1 X98.690 Y125.914 E90.19232
G1 X98.691 Y126.409 E90.24869
G1 X98.691 Y126.904 E90.30493
G1 X98.691 Y127.399 E90.36117
G1 X98.691 Y127.894 E90.41742
G1 X98.691 Y128.389 E90.47366
G1 X98.691 Y128.884 E90.52990
G1 X98.691 Y129.379 E90.58614
G1 X98.691 Y129.875 E90.64237
G1 X98.691 Y130.369 E90.69850
G1 X98.691 Y130.864 E90.75461
G1 X98.691 Y131.359 E90.81072
G1 X98.691 Y131.854 E90.86684
G1 X98.691 Y132.349 E90.92295
G1 X98.691 Y132.844 E90.97906
G1 X98.691 Y133.340 E91.03529
G1 X98.691 Y133.835 E91.09140
G1 X98.691 Y134.330 E91.14752
G1 X98.691 Y134.825 E91.20363
G1 X98.910 Y135.291 E91.25048
G0 F9000 X98.473 Y135.349
G1 F1800 X99.344 Y136.220 E91.36258
G0 F9000 X99.396 Y135.777
G1 F1800 X99.865 Y135.998 E91.41946
G1 X100.360 Y135.998 E91.47635
G1 X100.855 Y135.998 E91.53323
G1 X101.350 Y135.998 E91.59012
G1 X101.845 Y135.998 E91.64700
G1 X102.340 Y135.998 E91.70389
G1 X102.835 Y135.998 E91.76077
G1 X103.330 Y135.998 E91.81766
G1 X103.825 Y135.998 E91.87454
G1 X104.320 Y135.998 E91.93143
G1 X104.815 Y135.998 E91.98832
G1 X105.310 Y135.998 E92.04520
G1 X105.805 Y135.998 E92.10209
G1 X106.300 Y135.998 E92.15897
G1 X106.795 Y135.998 E92.21586
G1 X107.290 Y135.998 E92.27274
G1 X107.785 Y135.998 E92.32963
G1 X108.280 Y135.998 E92.38651
G1 X108.775 Y135.998 E92.44340
G1 X109.270 Y135.998 E92.50028
G1 X109.765 Y135.998 E92.55717
G1 X110.260 Y135.998 E92.61405
G1 X110.755 Y135.998 E92.67094
G1 X111.249 Y135.998 E92.72784
G1 X111.744 Y135.998 E92.78485
G1 X112.239 Y135.998 E92.84187
G1 X112.734 Y135.998 E92.89888
G1 X113.229 Y135.998 E92.95590
G1 X113.724 Y135.998 E93.01291
G1 X114.219 Y135.998 E93.06992
G1 X114.714 Y135.998 E93.12694
G1 X115.209 Y135.998 E93.18395
G1 X115.704 Y135.998 E93.24097
G1 X116.199 Y135.998 E93.29798
G1 X116.694 Y135.998 E93.35499
G1 X117.189 Y135.998 E93.41201
G1 X117.684 Y135.998 E93.46902
G1 X118.179 Y135.998 E93.52604
G1 X118.674 Y135.998 E93.58292
G1 X119.169 Y135.998 E93.63981
G1 X119.664 Y135.998 E93.69669
G1 X120.159 Y135.998 E93.75345
G1 X120.654 Y135.998 E93.81021
G1 X121.149 Y135.998 E93.86696
G1 X121.644 Y135.998 E93.92372
G1 X122.139 Y135.998 E93.98048
G1 X122.634 Y135.998 E94.03723
G1 X123.129 Y135.998 E94.09399
G1 X123.624 Y135.998 E94.15075
G1 X124.118 Y135.998 E94.20752
G1 X124.613 Y135.998 E94.26427
G1 X125.108 Y135.998 E94.32103
G1 X125.603 Y135.998 E94.37779
G1 X126.098 Y135.998 E94.43454
G1 X126.593 Y135.998 E94.49130
G1 X127.088 Y135.998 E94.54806
G1 X127.583 Y135.998 E94.60481
G1 X128.078 Y135.998 E94.66157
G1 X128.573 Y135.998 E94.71833
G1 X129.068 Y135.998 E94.77508
G1 X129.563 Y135.998 E94.83184
G1 X130.058 Y135.998 E94.88860
G1 X130.553 Y135.998 E94.94535
G1 X131.048 Y135.998 E95.00211
G1 X131.543 Y135.998 E95.05887
G1 X132.038 Y135.998 E95.11562
G1 X132.533 Y135.998 E95.17238
G1 X133.028 Y135.998 E95.22914
G1 X133.523 Y135.998 E95.28589
G1 X134.018 Y135.998 E95.34265
G1 X134.513 Y135.998 E95.39941
G1 X135.008 Y135.998 E95.45616
G1 X135.503 Y135.998 E95.51292
G1 X135.998 Y135.998 E95.56968
G1 X136.493 Y135.998 E95.62643
G1 X136.988 Y135.998 E95.68319
G1 X137.483 Y135.998 E95.73995
G1 X137.978 Y135.998 E95.79670
G1 X138.473 Y135.998 E95.85346
G1 X138.968 Y135.998 E95.91022
G1 X139.463 Y135.998 E95.96697
G1 X139.958 Y135.998 E96.02373
G1 X140.453 Y135.998 E96.08049
G1 X140.922 Y136.219 E96.12767
G0 F9000 X141.185 Y135.987
G1 F1800 X140.659 Y135.462 E96.19530
G0 F9000 X140.738 Y135.046
G1 F1800 X141.185 Y135.244 E96.25275
G1 X140.961 Y134.527 E96.31017
G1 X140.961 Y134.032 E96.36757
G1 X140.961 Y133.537 E96.42497
G1 X140.961 Y133.042 E96.48237
G1 X140.961 Y132.547 E96.53977
G1 X140.961 Y132.051 E96.59716
G1 X140.961 Y131.556 E96.65443
G1 X140.961 Y131.061 E96.71170
G1 X140.961 Y130.567 E96.76899
G1 X140.961 Y130.072 E96.82626
G1 X140.961 Y129.577 E96.88353
G1 X140.961 Y129.082 E96.94080
G1 X140.961 Y128.587 E96.99807
G1 X140.961 Y128.092 E97.05534
G1 X140.960 Y127.596 E97.11260
G1 X140.960 Y127.101 E97.16974
G1 X140.960 Y126.607 E97.22677
G1 X140.960 Y126.112 E97.28391
G1 X140.960 Y125.617 E97.34106
G1 X140.960 Y125.122 E97.39820
G1 X140.960 Y124.627 E97.45534
G1 X140.960 Y124.132 E97.51249
G1 X140.960 Y123.636 E97.56962
G1 X140.960 Y123.141 E97.62676
G1 X140.960 Y122.646 E97.68390
G1 X140.960 Y122.151 E97.74104
G1 X140.960 Y121.656 E97.79819
G1 X140.960 Y121.161 E97.85533
G1 X140.960 Y120.666 E97.91247
G1 X140.960 Y120.171 E97.96961
G1 X140.960 Y119.676 E98.02676
G1 X140.960 Y119.181 E98.08390
G1 X140.960 Y118.686 E98.14091
G1 X140.960 Y118.191 E98.19793
G1 X140.960 Y117.696 E98.25494
G1 X140.960 Y117.201 E98.31196
G1 X140.960 Y116.706 E98.36897
G1 X140.960 Y116.211 E98.42598
G1 X140.960 Y115.716 E98.48300
G1 X140.959 Y115.221 E98.54001
G1 X140.959 Y114.726 E98.59690
G1 X140.959 Y114.231 E98.65378
G1 X140.959 Y113.736 E98.71067
G1 X140.959 Y113.241 E98.76755
G1 X140.959 Y112.746 E98.82444
G1 X140.959 Y112.251 E98.88133
G1 X140.959 Y111.756 E98.93821
G1 X140.959 Y111.261 E98.99497
G1 X140.959 Y110.766 E99.05172
G1 X140.959 Y110.271 E99.10848
G1 X140.959 Y109.776 E99.16524
G1 X140.959 Y109.281 E99.22199
G1 X140.959 Y108.786 E99.27875
G1 X140.959 Y108.291 E99.33551
G1 X140.959 Y107.796 E99.39226
G1 X140.959 Y107.301 E99.44902
G1 X140.959 Y106.806 E99.50578
G1 X140.959 Y106.311 E99.56253
G1 X140.959 Y105.816 E99.61929
G1 X140.959 Y105.321 E99.67605
G1 X140.959 Y104.826 E99.73280
G1 X140.959 Y104.331 E99.78956
G1 X140.959 Y103.836 E99.84632
G1 X140.959 Y103.341 E99.90307
G1 X140.958 Y102.845 E99.95982
G1 X140.958 Y102.351 E100.01633
G1 X140.958 Y101.856 E100.07296
G1 X140.958 Y101.361 E100.12959
G1 X140.958 Y100.866 E100.18622
G1 X140.958 Y100.371 E100.24284
G1 X140.958 Y99.876 E100.29947
G1 X140.958 Y99.381 E100.35610
G1 X140.958 Y98.885 E100.41271
G1 X140.958 Y98.390 E100.46921
G1 X140.958 Y97.895 E100.52571
G1 X140.958 Y97.400 E100.58221
G1 X140.958 Y96.905 E100.63871
G1 X140.958 Y96.410 E100.69521
G1 X140.958 Y95.915 E100.75171
G1 X140.958 Y95.420 E100.80821
G1 X140.958 Y94.925 E100.86471
G1 X140.958 Y94.430 E100.92121
G1 X140.958 Y93.935 E100.97771
G1 X140.958 Y93.440 E101.03420
G1 X140.958 Y92.945 E101.09070
G1 X140.958 Y92.450 E101.14720
G1 X140.958 Y91.955 E101.20370
G1 X140.958 Y91.461 E101.26009
G1 X140.958 Y90.966 E101.31659
G1 X140.957 Y90.470 E101.37307
G1 X140.957 Y89.975 E101.42944
G1 X140.957 Y89.480 E101.48581
G1 X140.957 Y88.985 E101.54218
G1 X140.957 Y88.490 E101.59855
G1 X140.957 Y87.995 E101.65492
G1 X140.957 Y87.500 E101.71130
G1 X140.695 Y86.990 E101.76765
G1 X140.182 Y86.725 E101.82469
G1 X139.687 Y86.725 E101.88171
G1 X139.192 Y86.725 E101.93872
G1 X138.697 Y86.725 E101.99574
G1 X138.202 Y86.725 E102.05275
G1 X137.707 Y86.725 E102.10976
G1 X137.212 Y86.725 E102.16678
G1 X136.717 Y86.725 E102.22379
G1 X136.222 Y86.725 E102.28081
G1 X135.727 Y86.725 E102.33782
G1 X135.233 Y86.725 E102.39485
G1 X134.738 Y86.725 E102.45199
G1 X134.243 Y86.725 E102.50913
G1 X133.748 Y86.725 E102.56628
G1 X133.253 Y86.725 E102.62329
G1 X132.758 Y86.725 E102.68030
G1 X132.263 Y86.725 E102.73732
G1 X131.768 Y86.725 E102.79433
G1 X131.273 Y86.725 E102.85135
G1 X130.778 Y86.725 E102.90836
G1 X130.283 Y86.725 E102.96537
G1 X129.788 Y86.725 E103.02239
G1 X129.293 Y86.725 E103.07940
G1 X128.798 Y86.725 E103.13642
G1 X128.303 Y86.725 E103.19343
G1 X127.808 Y86.725 E103.25044
G1 X127.313 Y86.725 E103.30746
G1 X126.819 Y86.725 E103.36436
G1 X126.324 Y86.725 E103.42124
G1 X125.829 Y86.725 E103.47813
G1 X125.334 Y86.725 E103.53501
G1 X124.839 Y86.725 E103.59190
G1 X124.344 Y86.725 E103.64878
G1 X123.849 Y86.725 E103.70567
G1 X123.354 Y86.725 E103.76256
G1 X122.859 Y86.725 E103.81944
G1 X122.364 Y86.725 E103.87633
G1 X121.869 Y86.725 E103.93321
G1 X121.374 Y86.725 E103.99010
G1 X120.879 Y86.725 E104.04698
G1 X120.384 Y86.725 E104.10387
G1 X119.889 Y86.725 E104.16075
G1 X119.394 Y86.725 E104.21764
G1 X118.899 Y86.725 E104.27452
G1 X118.404 Y86.725 E104.33141
G1 X117.909 Y86.725 E104.38829
G1 X117.414 Y86.725 E104.44518
G1 X116.919 Y86.725 E104.50207
G1 X116.424 Y86.725 E104.55895
G1 X115.929 Y86.725 E104.61584
G1 X115.434 Y86.725 E104.67272
G1 X114.939 Y86.725 E104.72974
G1 X114.444 Y86.725 E104.78675
G1 X113.949 Y86.725 E104.84376
G1 X113.454 Y86.725 E104.90078
G1 X112.959 Y86.725 E104.95779
G1 X112.465 Y86.726 E105.01456
G1 X111.970 Y86.726 E105.07132
G1 X111.475 Y86.726 E105.12808
G1 X110.980 Y86.726 E105.18483
G1 X110.485 Y86.726 E105.24159
G1 X109.990 Y86.726 E105.29835
G1 X109.495 Y86.726 E105.35510
G1 X109.000 Y86.726 E105.41186
G1 X108.505 Y86.726 E105.46862
G1 X108.010 Y86.726 E105.52537
G1 X107.515 Y86.726 E105.58213
G1 X107.020 Y86.726 E105.63889
G1 X106.525 Y86.726 E105.69564
G1 X106.030 Y86.726 E105.75240
G1 X105.535 Y86.726 E105.80916
G1 X105.040 Y86.726 E105.86591
G1 X104.545 Y86.726 E105.92267
G1 X104.050 Y86.726 E105.97943
G1 X103.555 Y86.726 E106.03618
G1 X103.060 Y86.726 E106.09294
G1 X102.565 Y86.726 E106.14970
G1 X102.070 Y86.726 E106.20645
G1 X101.575 Y86.726 E106.26321
G1 X101.080 Y86.726 E106.31997
G1 X100.585 Y86.726 E106.37672
G1 X100.090 Y86.726 E106.43348
G1 X99.595 Y86.726 E106.49024
G1 X99.127 Y86.505 E106.53733
G0 F9000 X140.703 Y86.503
G1 F1800 X141.177 Y86.977 E106.59834
G0 F9000 X99.085 Y87.122
G0 X98.473 Y135.844
G1 F1800 X98.849 Y136.220 E106.64672
;LAYER:1
M106 S127
G0 F9000 X98.297 Y136.480 Z0.410
;TYPE:WALL-INNER
G1 F2040 X98.226 Y136.457 E106.65064
G1 X98.218 Y136.447 E106.65131
G1 X98.206 Y86.336 E109.28214
G1 X98.222 Y86.272 E109.28561
G1 X98.258 Y86.247 E109.28791
G1 X141.382 Y86.245 E111.55192
G1 X141.412 Y86.255 E111.55358
G1 X141.433 Y86.278 E111.55521
G1 X141.445 Y136.386 E114.18588
G1 X141.430 Y136.450 E114.18933
G1 X141.381 Y136.480 E114.19235
G1 X98.297 Y136.480 E116.45426
G0 F9000 X99.051 Y135.637
G1 F2040 X140.600 Y135.637 E118.63558
G1 X140.600 Y87.088 E121.18440
G1 X99.051 Y87.088 E123.36573
G1 X99.051 Y135.637 E125.91455
G0 F9000 X99.401 Y135.287
;TYPE:WALL-OUTER
G1 F1920 X140.250 Y135.287 E128.05912
G1 X140.250 Y87.438 E130.57119
G1 X99.401 Y87.438 E132.71577
G1 X99.401 Y135.287 E135.22784
G0 F9000 X99.126 Y135.287
G0 X98.143 Y136.465
G0 X97.892 Y136.581
G1 F1920 X97.868 Y136.509 E135.23182
G1 X97.856 Y86.321 E137.86669
G1 X97.866 Y86.226 E137.87171
G1 X97.893 Y86.144 E137.87624
G1 X97.938 Y86.065 E137.88101
G1 X97.995 Y86.000 E137.88555
G1 X98.065 Y85.950 E137.89007
G1 X98.146 Y85.914 E137.89472
G1 X98.233 Y85.895 E137.89940
G1 X141.418 Y85.895 E140.16661
G1 X141.505 Y85.914 E140.17129
G1 X141.588 Y85.950 E140.17604
G1 X141.654 Y85.999 E140.18035
G1 X141.713 Y86.065 E140.18500
G1 X141.759 Y86.144 E140.18980
G1 X141.783 Y86.216 E140.19378
G1 X141.795 Y136.404 E142.82865
G1 X141.785 Y136.499 E142.83367
G1 X141.758 Y136.581 E142.83820
G1 X141.713 Y136.660 E142.84297
G1 X141.660 Y136.719 E142.84714
G1 X141.508 Y136.810 E142.85644
G1 X141.418 Y136.830 E142.86128
G1 X98.240 Y136.830 E145.12812
G1 X98.061 Y136.771 E145.13802
G1 X97.994 Y136.723 E145.14235
G1 X97.938 Y136.660 E145.14677
G1 X97.892 Y136.581 E145.15157
G0 F9000 X98.525 Y136.340
;TYPE:SKIN
G1 F1740 X99.088 Y135.776 E145.19341
G0 F9000 X98.910 Y135.459
G1 F1740 X98.357 Y136.012 E145.23447
G0 F9000 X98.357 Y135.517
