;FLAVOR:UltiGCode
;TIME:2076
;MATERIAL:4198
;MATERIAL2:0
;NOZZLE_DIAMETER:0.400000
;NOZZLE_DIAMETER2:0.400000

;Layer count: 24
;LAYER:0
M107
G0 F9000 X78.950 Y77.950 Z0.260
;TYPE:SKIRT
G1 F1800 X144.050 Y77.950 E6.77040
G1 X144.050 Y145.050 E13.74880
G1 X78.950 Y145.050 E20.51920
G1 X78.950 Y77.950 E27.49760
G0 F9000 X79.350 Y78.350
G1 F1800 X143.650 Y78.350 E34.18480
G1 X143.650 Y144.650 E41.08000
G1 X79.350 Y144.650 E47.76720
G1 X79.350 Y78.350 E54.66240
G0 F9000 X79.750 Y78.750
G1 F1800 X143.250 Y78.750 E61.26640
G1 X143.250 Y144.250 E68.07840
G1 X79.750 Y144.250 E74.68240
G1 X79.750 Y78.750 E81.49440
G0 F9000 X80.150 Y79.150
G1 F1800 X142.850 Y79.150 E88.01520
G1 X142.850 Y143.850 E94.74400
G1 X80.150 Y143.850 E101.26480
G1 X80.150 Y79.150 E107.99360
G0 F9000 X80.550 Y79.550
G1 F1800 X142.450 Y79.550 E114.43120
G1 X142.450 Y143.450 E121.07680
G1 X80.550 Y143.450 E127.51440
G1 X80.550 Y79.550 E134.16000
G0 F9000 X80.950 Y79.950
G1 F1800 X142.050 Y79.950 E140.51440
G1 X142.050 Y143.050 E147.07680
G1 X80.950 Y143.050 E153.43120
G1 X80.950 Y79.950 E159.99360
G0 F9000 X81.350 Y80.350
G1 F1800 X141.650 Y80.350 E166.26480
G1 X141.650 Y142.650 E172.74400
G1 X81.350 Y142.650 E179.01520
G1 X81.350 Y80.350 E185.49440
G0 F9000 X81.750 Y80.750
G1 F1800 X141.250 Y80.750 E191.68240
G1 X141.250 Y142.250 E198.07840
G1 X81.750 Y142.250 E204.26640
G1 X81.750 Y80.750 E210.66240
G0 F9000 X82.150 Y81.150
G1 F1800 X140.850 Y81.150 E216.76720
G1 X140.850 Y141.850 E223.08000
G1 X82.150 Y141.850 E229.18480
G1 X82.150 Y81.150 E235.49760
G0 F9000 X82.550 Y81.550
G1 F1800 X140.450 Y81.550 E241.51920
G1 X140.450 Y141.450 E247.74880
G1 X82.550 Y141.450 E253.77040
G1 X82.550 Y81.550 E260.00000
G0 F9000 X82.950 Y81.950
G1 F1800 X140.050 Y81.950 E265.93840
G1 X140.050 Y141.050 E272.08480
G1 X82.950 Y141.050 E278.02320
G1 X82.950 Y81.950 E284.16960
G0 F9000 X83.350 Y82.350
G1 F1800 X139.650 Y82.350 E290.02480
G1 X139.650 Y140.650 E296.08800
G1 X83.350 Y140.650 E301.94320
G1 X83.350 Y82.350 E308.00640
G0 F9000 X83.750 Y82.750
G1 F1800 X139.250 Y82.750 E313.77840
G1 X139.250 Y140.250 E319.75840
G1 X83.750 Y140.250 E325.53040
G1 X83.750 Y82.750 E331.51040
G0 F9000 X84.150 Y83.150
G1 F1800 X138.850 Y83.150 E337.19920
G1 X138.850 Y139.850 E343.09600
G1 X84.150 Y139.850 E348.78480
G1 X84.150 Y83.150 E354.68160
G0 F9000 X84.550 Y83.550
G1 F1800 X138.450 Y83.550 E360.28720
G1 X138.450 Y139.450 E366.10080
G1 X84.550 Y139.450 E371.70640
G1 X84.550 Y83.550 E377.52000
G0 F9000 X84.950 Y83.950
G1 F1800 X138.050 Y83.950 E383.04240
G1 X138.050 Y139.050 E388.77280
G1 X84.950 Y139.050 E394.29520
G1 X84.950 Y83.950 E400.02560
G0 F9000 X85.350 Y84.350
G1 F1800 X137.650 Y84.350 E405.46480
G1 X137.650 Y138.650 E411.11200
G1 X85.350 Y138.650 E416.55120
G1 X85.350 Y84.350 E422.19840
G0 F9000 X85.750 Y84.750
G1 F1800 X137.250 Y84.750 E427.55440
G1 X137.250 Y138.250 E433.11840
G1 X85.750 Y138.250 E438.47440
G1 X85.750 Y84.750 E444.03840
G0 F9000 X86.150 Y85.150
G1 F1800 X136.850 Y85.150 E449.31120
G1 X136.850 Y137.850 E454.79200
G1 X86.150 Y137.850 E460.06480
G1 X86.150 Y85.150 E465.54560
G0 F9000 X86.550 Y85.550
G1 F1800 X136.450 Y85.550 E470.73520
G1 X136.450 Y137.450 E476.13280
G1 X86.550 Y137.450 E481.32240
G1 X86.550 Y85.550 E486.72000
G0 F9000 X87.350 Y86.350
;TYPE:WALL-INNER
G1 F1800 X135.650 Y86.350 E491.74320
G1 X135.650 Y136.650 E496.97440
G1 X87.350 Y136.650 E501.99760
G1 X87.350 Y86.350 E507.22880
G0 F9000 X86.950 Y85.950
;TYPE:WALL-OUTER
G1 F1800 X136.050 Y85.950 E512.33520
G1 X136.050 Y137.050 E517.64960
G1 X86.950 Y137.050 E522.75600
G1 X86.950 Y85.950 E528.07040
G0 F9000 X87.509 Y86.660
;TYPE:SKIN
G1 F1800 X135.489 Y134.640 E535.12721
G0 F9000 X135.489 Y134.075
G1 F1800 X87.923 Y86.509 E542.12313
G0 F9000 X88.489 Y86.509
G1 F1800 X135.489 Y133.509 E549.03581
G0 F9000 X135.489 Y132.943
G1 F1800 X89.055 Y86.509 E555.86524
G0 F9000 X89.620 Y86.509
G1 F1800 X135.489 Y132.378 E562.61157
G0 F9000 X135.489 Y131.812
G1 F1800 X90.186 Y86.509 E569.27465
G0 F9000 X90.752 Y86.509
G1 F1800 X135.489 Y131.246 E575.85449
G0 F9000 X135.489 Y130.681
G1 F1800 X91.317 Y86.509 E582.35123
G0 F9000 X91.883 Y86.509
G1 F1800 X135.489 Y130.115 E588.76472
G0 F9000 X135.489 Y129.549
G1 F1800 X92.449 Y86.509 E595.09497
G0 F9000 X93.014 Y86.509
G1 F1800 X135.489 Y128.984 E601.34212
G0 F9000 X135.489 Y128.418
G1 F1800 X93.580 Y86.509 E607.50602
G0 F9000 X94.146 Y86.509
G1 F1800 X135.489 Y127.852 E613.58667
G0 F9000 X135.489 Y127.286
G1 F1800 X94.712 Y86.509 E619.58408
G0 F9000 X95.277 Y86.509
G1 F1800 X135.489 Y126.721 E625.49839
G0 F9000 X135.489 Y126.155
G1 F1800 X95.843 Y86.509 E631.32945
G0 F9000 X96.409 Y86.509
G1 F1800 X135.489 Y125.589 E637.07727
G0 F9000 X135.489 Y125.024
G1 F1800 X96.974 Y86.509 E642.74199
G0 F9000 X97.540 Y86.509
G1 F1800 X135.489 Y124.458 E648.32346
G0 F9000 X135.489 Y123.892
G1 F1800 X98.106 Y86.509 E653.82168
G0 F9000 X98.671 Y86.509
G1 F1800 X135.489 Y123.327 E659.23681
G0 F9000 X135.489 Y122.761
G1 F1800 X99.237 Y86.509 E664.56869
G0 F9000 X99.803 Y86.509
G1 F1800 X135.489 Y122.195 E669.81732
G0 F9000 X135.489 Y121.630
G1 F1800 X100.368 Y86.509 E674.98285
G0 F9000 X100.934 Y86.509
G1 F1800 X135.489 Y121.064 E680.06514
G0 F9000 X135.489 Y120.498
G1 F1800 X101.500 Y86.509 E685.06418
G0 F9000 X102.065 Y86.509
G1 F1800 X135.489 Y119.933 E689.98012
G0 F9000 X135.489 Y119.367
G1 F1800 X102.631 Y86.509 E694.81282
G0 F9000 X103.197 Y86.509
G1 F1800 X135.489 Y118.801 E699.56227
G0 F9000 X135.489 Y118.236
G1 F1800 X103.762 Y86.509 E704.22862
G0 F9000 X104.328 Y86.509
G1 F1800 X135.489 Y117.670 E708.81172
G0 F9000 X135.489 Y117.104
G1 F1800 X104.894 Y86.509 E713.31158
G0 F9000 X105.460 Y86.509
G1 F1800 X135.489 Y116.538 E717.72819
G0 F9000 X135.489 Y115.973
G1 F1800 X106.025 Y86.509 E722.06171
G0 F9000 X106.591 Y86.509
G1 F1800 X135.489 Y115.407 E726.31197
G0 F9000 X135.489 Y114.841
G1 F1800 X107.157 Y86.509 E730.47899
G0 F9000 X107.722 Y86.509
G1 F1800 X135.489 Y114.276 E734.56291
G0 F9000 X135.489 Y113.710
G1 F1800 X108.288 Y86.509 E738.56359
G0 F9000 X108.854 Y86.509
G1 F1800 X135.489 Y113.144 E742.48102
G0 F9000 X135.489 Y112.579
G1 F1800 X109.419 Y86.509 E746.31534
G0 F9000 X109.985 Y86.509
G1 F1800 X135.489 Y112.013 E750.06643
G0 F9000 X135.489 Y111.447
G1 F1800 X110.551 Y86.509 E753.73426
G0 F9000 X111.116 Y86.509
G1 F1800 X135.489 Y110.882 E757.31900
G0 F9000 X135.489 Y110.316
G1 F1800 X111.682 Y86.509 E760.82049
G0 F9000 X112.248 Y86.509
G1 F1800 X135.489 Y109.750 E764.23874
G0 F9000 X135.489 Y109.185
G1 F1800 X112.813 Y86.509 E767.57388
G0 F9000 X113.379 Y86.509
G1 F1800 X135.489 Y108.619 E770.82578
G0 F9000 X135.489 Y108.053
G1 F1800 X113.945 Y86.509 E773.99443
G0 F9000 X114.510 Y86.509
G1 F1800 X135.489 Y107.488 E777.07999
G0 F9000 X135.489 Y106.922
G1 F1800 X115.076 Y86.509 E780.08230
G0 F9000 X115.642 Y86.509
G1 F1800 X135.489 Y106.356 E783.00136
G0 F9000 X135.489 Y105.790
G1 F1800 X116.208 Y86.509 E785.83717
G0 F9000 X116.773 Y86.509
G1 F1800 X135.489 Y105.225 E788.58989
G0 F9000 X135.489 Y104.659
G1 F1800 X117.339 Y86.509 E791.25936
G0 F9000 X117.905 Y86.509
G1 F1800 X135.489 Y104.093 E793.84558
G0 F9000 X135.489 Y103.528
G1 F1800 X118.470 Y86.509 E796.34870
G0 F9000 X119.036 Y86.509
G1 F1800 X135.489 Y102.962 E798.76858
G0 F9000 X135.489 Y102.396
G1 F1800 X119.602 Y86.509 E801.10521
G0 F9000 X120.167 Y86.509
G1 F1800 X135.489 Y101.831 E803.35875
G0 F9000 X135.489 Y101.265
G1 F1800 X120.733 Y86.509 E805.52903
G0 F9000 X121.299 Y86.509
G1 F1800 X135.489 Y100.699 E807.61607
G0 F9000 X135.489 Y100.134
G1 F1800 X121.864 Y86.509 E809.62001
G0 F9000 X122.430 Y86.509
G1 F1800 X135.489 Y99.568 E811.54071
G0 F9000 X135.489 Y99.002
G1 F1800 X122.996 Y86.509 E813.37815
G0 F9000 X123.561 Y86.509
G1 F1800 X135.489 Y98.437 E815.13250
G0 F9000 X135.489 Y97.871
G1 F1800 X124.127 Y86.509 E816.80361
G0 F9000 X124.693 Y86.509
G1 F1800 X135.489 Y97.305 E818.39146
G0 F9000 X135.489 Y96.739
G1 F1800 X125.259 Y86.509 E819.89607
G0 F9000 X125.824 Y86.509
G1 F1800 X135.489 Y96.174 E821.31758
G0 F9000 X135.489 Y95.608
G1 F1800 X126.390 Y86.509 E822.65585
G0 F9000 X126.956 Y86.509
G1 F1800 X135.489 Y95.042 E823.91087
G0 F9000 X135.489 Y94.477
G1 F1800 X127.521 Y86.509 E825.08279
G0 F9000 X128.087 Y86.509
G1 F1800 X135.489 Y93.911 E826.17146
G0 F9000 X135.489 Y93.345
G1 F1800 X128.653 Y86.509 E827.17689
G0 F9000 X129.218 Y86.509
G1 F1800 X135.489 Y92.780 E828.09921
G0 F9000 X135.489 Y92.214
G1 F1800 X129.784 Y86.509 E828.93829
G0 F9000 X130.350 Y86.509
G1 F1800 X135.489 Y91.648 E829.69413
G0 F9000 X135.489 Y91.083
G1 F1800 X130.915 Y86.509 E830.36686
G0 F9000 X131.481 Y86.509
G1 F1800 X135.489 Y90.517 E830.95635
G0 F9000 X135.489 Y89.951
G1 F1800 X132.047 Y86.509 E831.46260
G0 F9000 X132.612 Y86.509
G1 F1800 X135.489 Y89.386 E831.88574
G0 F9000 X135.489 Y88.820
G1 F1800 X133.178 Y86.509 E832.22564
G0 F9000 X133.744 Y86.509
G1 F1800 X135.489 Y88.254 E832.48229
G0 F9000 X135.489 Y87.689
G1 F1800 X134.309 Y86.509 E832.65584
G0 F9000 X134.875 Y86.509
G1 F1800 X135.489 Y87.123 E832.74615
G0 F9000 X87.509 Y87.226
G1 F1800 X135.489 Y135.206 E839.80296
G0 F9000 X135.489 Y135.772
G1 F1800 X87.509 Y87.792 E846.85977
G0 F9000 X87.509 Y88.357
G1 F1800 X135.489 Y136.337 E853.91659
G0 F9000 X135.075 Y136.489
G1 F1800 X87.509 Y88.923 E860.91251
G0 F9000 X87.509 Y89.489
G1 F1800 X134.509 Y136.489 E867.82518
G0 F9000 X133.943 Y136.489
G1 F1800 X87.509 Y90.054 E874.65469
G0 F9000 X87.509 Y90.620
G1 F1800 X133.378 Y136.489 E881.40102
G0 F9000 X132.812 Y136.489
G1 F1800 X87.509 Y91.186 E888.06410
G0 F9000 X87.509 Y91.752
G1 F1800 X132.246 Y136.489 E894.64394
G0 F9000 X131.680 Y136.489
G1 F1800 X87.509 Y92.317 E901.14061
G0 F9000 X87.509 Y92.883
G1 F1800 X131.115 Y136.489 E907.55410
G0 F9000 X130.549 Y136.489
G1 F1800 X87.509 Y93.449 E913.88434
G0 F9000 X87.509 Y94.014
G1 F1800 X129.983 Y136.489 E920.13142
G0 F9000 X129.418 Y136.489
G1 F1800 X87.509 Y94.580 E926.29532
G0 F9000 X87.509 Y95.146
G1 F1800 X128.852 Y136.489 E932.37597
G0 F9000 X128.286 Y136.489
G1 F1800 X87.509 Y95.711 E938.37345
G0 F9000 X87.509 Y96.277
G1 F1800 X127.721 Y136.489 E944.28776
G0 F9000 X127.155 Y136.489
G1 F1800 X87.509 Y96.843 E950.11883
G0 F9000 X87.509 Y97.408
G1 F1800 X126.589 Y136.489 E955.86672
G0 F9000 X126.024 Y136.489
G1 F1800 X87.509 Y97.974 E961.53143
G0 F9000 X87.509 Y98.540
G1 F1800 X125.458 Y136.489 E967.11290
G0 F9000 X124.892 Y136.489
G1 F1800 X87.509 Y99.105 E972.61120
G0 F9000 X87.509 Y99.671
G1 F1800 X124.327 Y136.489 E978.02633
G0 F9000 X123.761 Y136.489
G1 F1800 X87.509 Y100.237 E983.35821
G0 F9000 X87.509 Y100.803
G1 F1800 X123.195 Y136.489 E988.60684
G0 F9000 X122.629 Y136.489
G1 F1800 X87.509 Y101.368 E993.77230
G0 F9000 X87.509 Y101.934
G1 F1800 X122.064 Y136.489 E998.85459
G0 F9000 X121.498 Y136.489
G1 F1800 X87.509 Y102.500 E1003.85363
G0 F9000 X87.509 Y103.065
G1 F1800 X120.932 Y136.489 E1008.76950
G0 F9000 X120.367 Y136.489
G1 F1800 X87.509 Y103.631 E1013.60219
G0 F9000 X87.509 Y104.197
G1 F1800 X119.801 Y136.489 E1018.35164
G0 F9000 X119.235 Y136.489
G1 F1800 X87.509 Y104.762 E1023.01792
G0 F9000 X87.509 Y105.328
G1 F1800 X118.670 Y136.489 E1027.60102
G0 F9000 X118.104 Y136.489
G1 F1800 X87.509 Y105.894 E1032.10088
G0 F9000 X87.509 Y106.459
G1 F1800 X117.538 Y136.489 E1036.51757
G0 F9000 X116.973 Y136.489
G1 F1800 X87.509 Y107.025 E1040.85108
G0 F9000 X87.509 Y107.591
G1 F1800 X116.407 Y136.489 E1045.10135
G0 F9000 X115.841 Y136.489
G1 F1800 X87.509 Y108.156 E1049.26844
G0 F9000 X87.509 Y108.722
G1 F1800 X115.276 Y136.489 E1053.35236
G0 F9000 X114.710 Y136.489
G1 F1800 X87.509 Y109.288 E1057.35303
G0 F9000 X87.509 Y109.853
G1 F1800 X114.144 Y136.489 E1061.27054
G0 F9000 X113.579 Y136.489
G1 F1800 X87.509 Y110.419 E1065.10487
G0 F9000 X87.509 Y110.985
G1 F1800 X113.013 Y136.489 E1068.85595
G0 F9000 X112.447 Y136.489
G1 F1800 X87.509 Y111.551 E1072.52378
G0 F9000 X87.509 Y112.116
G1 F1800 X111.881 Y136.489 E1076.10845
G0 F9000 X111.316 Y136.489
G1 F1800 X87.509 Y112.682 E1079.60994
G0 F9000 X87.509 Y113.248
G1 F1800 X110.750 Y136.489 E1083.02818
G0 F9000 X110.184 Y136.489
G1 F1800 X87.509 Y113.813 E1086.36326
G0 F9000 X87.509 Y114.379
G1 F1800 X109.619 Y136.489 E1089.61515
G0 F9000 X109.053 Y136.489
G1 F1800 X87.509 Y114.945 E1092.78381
G0 F9000 X87.509 Y115.510
G1 F1800 X108.487 Y136.489 E1095.86929
G0 F9000 X107.922 Y136.489
G1 F1800 X87.509 Y116.076 E1098.87160
G0 F9000 X87.509 Y116.642
G1 F1800 X107.356 Y136.489 E1101.79066
G0 F9000 X106.790 Y136.489
G1 F1800 X87.509 Y117.207 E1104.62655
G0 F9000 X87.509 Y117.773
G1 F1800 X106.225 Y136.489 E1107.37926
G0 F9000 X105.659 Y136.489
G1 F1800 X87.509 Y118.339 E1110.04873
G0 F9000 X87.509 Y118.904
G1 F1800 X105.093 Y136.489 E1112.63503
G0 F9000 X104.528 Y136.489
G1 F1800 X87.509 Y119.470 E1115.13815
G0 F9000 X87.509 Y120.036
G1 F1800 X103.962 Y136.489 E1117.55803
G0 F9000 X103.396 Y136.489
G1 F1800 X87.509 Y120.602 E1119.89466
G0 F9000 X87.509 Y121.167
G1 F1800 X102.831 Y136.489 E1122.14819
G0 F9000 X102.265 Y136.489
G1 F1800 X87.509 Y121.733 E1124.31848
G0 F9000 X87.509 Y122.299
G1 F1800 X101.699 Y136.489 E1126.40552
G0 F9000 X101.133 Y136.489
G1 F1800 X87.509 Y122.864 E1128.40939
G0 F9000 X87.509 Y123.430
G1 F1800 X100.568 Y136.489 E1130.33008
G0 F9000 X100.002 Y136.489
G1 F1800 X87.509 Y123.996 E1132.16753
G0 F9000 X87.509 Y124.561
G1 F1800 X99.436 Y136.489 E1133.92180
G0 F9000 X98.871 Y136.489
G1 F1800 X87.509 Y125.127 E1135.59291
G0 F9000 X87.509 Y125.693
G1 F1800 X98.305 Y136.489 E1137.18076
G0 F9000 X97.739 Y136.489
G1 F1800 X87.509 Y126.258 E1138.68545
G0 F9000 X87.509 Y126.824
G1 F1800 X97.174 Y136.489 E1140.10696
G0 F9000 X96.608 Y136.489
G1 F1800 X87.509 Y127.390 E1141.44522
G0 F9000 X87.509 Y127.955
G1 F1800 X96.042 Y136.489 E1142.70031
G0 F9000 X95.477 Y136.489
G1 F1800 X87.509 Y128.521 E1143.87223
G0 F9000 X87.509 Y129.087
G1 F1800 X94.911 Y136.489 E1144.96091
G0 F9000 X94.345 Y136.489
G1 F1800 X87.509 Y129.652 E1145.96641
G0 F9000 X87.509 Y130.218
G1 F1800 X93.780 Y136.489 E1146.88873
G0 F9000 X93.214 Y136.489
G1 F1800 X87.509 Y130.784 E1147.72781
G0 F9000 X87.509 Y131.350
G1 F1800 X92.648 Y136.489 E1148.48365
G0 F9000 X92.082 Y136.489
G1 F1800 X87.509 Y131.915 E1149.15631
G0 F9000 X87.509 Y132.481
G1 F1800 X91.517 Y136.489 E1149.74580
G0 F9000 X90.951 Y136.489
G1 F1800 X87.509 Y133.047 E1150.25204
G0 F9000 X87.509 Y133.612
G1 F1800 X90.385 Y136.489 E1150.67512
G0 F9000 X89.820 Y136.489
G1 F1800 X87.509 Y134.178 E1151.01501
G0 F9000 X87.509 Y134.744
G1 F1800 X89.254 Y136.489 E1151.27166
G0 F9000 X88.688 Y136.489
G1 F1800 X87.509 Y135.309 E1151.44514
G0 F9000 X87.509 Y135.875
G1 F1800 X88.123 Y136.489 E1151.53545
;LAYER:1
M106 S127
G0 F9000 X87.350 Y136.650 Z0.410
;TYPE:WALL-INNER
G1 F2040 X87.350 Y86.350 E1154.55345
G1 X135.650 Y86.350 E1157.45145
G1 X135.650 Y136.650 E1160.46945
G1 X87.350 Y136.650 E1163.36745
G0 F9000 X86.950 Y137.050
;TYPE:WALL-OUTER
G1 F1920 X86.950 Y85.950 E1166.43345
G1 X136.050 Y85.950 E1169.37945
G1 X136.050 Y137.050 E1172.44545
G1 X86.950 Y137.050 E1175.39145
G0 F9000 X87.509 Y136.219
;TYPE:SKIN
G1 F1740 X135.489 Y88.239 E1179.46269
G0 F9000 X135.489 Y88.804
G1 F1740 X87.804 Y136.489 E1183.50889
G0 F9000 X88.370 Y136.489
G1 F1740 X135.489 Y89.370 E1187.50707
G0 F9000 X135.489 Y89.936
G1 F1740 X88.936 Y136.489 E1191.45723
G0 F9000 X89.502 Y136.489
G1 F1740 X135.489 Y90.501 E1195.35940
G0 F9000 X135.489 Y91.067
G1 F1740 X90.067 Y136.489 E1199.21358
G0 F9000 X90.633 Y136.489
G1 F1740 X135.489 Y91.633 E1203.01974
G0 F9000 X135.489 Y92.198
G1 F1740 X91.199 Y136.489 E1206.77791
G0 F9000 X91.764 Y136.489
G1 F1740 X135.489 Y92.764 E1210.48810
G0 F9000 X135.489 Y93.330
G1 F1740 X92.330 Y136.489 E1214.15026
G0 F9000 X92.896 Y136.489
G1 F1740 X135.489 Y93.896 E1217.76440
G0 F9000 X135.489 Y94.461
G1 F1740 X93.461 Y136.489 E1221.33059
G0 F9000 X94.027 Y136.489
G1 F1740 X135.489 Y95.027 E1224.84876
G0 F9000 X135.489 Y95.593
G1 F1740 X94.593 Y136.489 E1228.31890
G0 F9000 X95.158 Y136.489
G1 F1740 X135.489 Y96.158 E1231.74110
G0 F9000 X135.489 Y96.724
G1 F1740 X95.724 Y136.489 E1235.11527
